src/main/resources/react/src/img/MySettings/settings.svg

<svg width="17" height="17" viewBox="0 0 17 17" fill="none" xmlns="http://www.w3.org/2000/svg">
<path d="M15.766 6.32896L14.937 6.18836C14.8632 5.98292 14.7798 5.78136 14.6876 5.58539L15.1758 4.90239C15.6005 4.30564 15.5323 3.49969 15.0152 2.98763L14.019 1.99128C13.7374 1.7097 13.3641 1.55458 12.968 1.55458C12.6561 1.55458 12.3578 1.65069 12.1075 1.83084L11.4219 2.31916C11.2098 2.2189 10.9946 2.13032 10.778 2.05379L10.641 1.24149C10.5203 0.522041 9.90322 0 9.17353 0H7.76603C7.03647 0 6.41936 0.522041 6.299 1.24006L6.1549 2.08414C5.9514 2.15846 5.75076 2.2429 5.55426 2.33719L4.88112 1.85237C4.62872 1.67066 4.32925 1.57468 4.01498 1.57468C3.61499 1.57468 3.24158 1.73006 2.96312 2.01229L1.96456 3.00761C1.44888 3.52329 1.3813 4.3286 1.80399 4.92236L2.30009 5.61937C2.20866 5.81612 2.12643 6.01859 2.05379 6.2252L1.24136 6.36229C0.522041 6.48304 0 7.10015 0 7.82971V9.23721C0 9.96677 0.522041 10.5839 1.24006 10.7044L2.08414 10.8483C2.15846 11.052 2.24303 11.2527 2.33719 11.4491L1.85419 12.121C1.42942 12.7177 1.49764 13.5238 2.01476 14.0357L3.01098 15.0321C3.29256 15.3136 3.66583 15.4688 4.06194 15.4688C4.37386 15.4688 4.67217 15.3727 4.92236 15.1926L5.61937 14.6965C5.80251 14.7816 5.99239 14.8596 6.18732 14.9297L6.32545 15.7586C6.44621 16.478 7.06332 17 7.79288 17H9.20362C9.93318 17 10.5504 16.478 10.6709 15.7596L10.8115 14.9304C11.017 14.8566 11.2185 14.7732 11.4145 14.681L12.0953 15.1676C12.3477 15.3493 12.6471 15.4454 12.9614 15.4454C13.3574 15.4454 13.7307 15.2903 14.0122 15.0087L15.0085 14.0124C15.5243 13.4967 15.5917 12.6914 15.169 12.0976L14.6803 11.4114C14.775 11.2109 14.8587 11.0094 14.9306 10.8092L15.7585 10.6712C16.4778 10.5504 16.9999 9.93331 16.9999 9.20375V7.7991C17.008 7.06876 16.4898 6.45087 15.766 6.32896ZM16.0038 9.20375C16.0038 9.44486 15.8313 9.64888 15.5942 9.6887L14.4961 9.8717C14.2936 9.90543 14.1301 10.0484 14.0693 10.2449C13.9718 10.5609 13.8378 10.884 13.6714 11.2046C13.5772 11.3854 13.5923 11.6009 13.7106 11.7666L14.3576 12.6753C14.4972 12.8714 14.4747 13.1375 14.3042 13.3081L13.308 14.3043C13.2132 14.3991 13.0933 14.4493 12.9614 14.4493C12.8574 14.4493 12.7592 14.4182 12.6759 14.3583L11.7712 13.7116C11.6048 13.5921 11.3884 13.5771 11.2067 13.6722C10.9024 13.8314 10.5791 13.9654 10.2456 14.0701C10.0511 14.131 9.90906 14.2939 9.87521 14.4945L9.6887 15.5937C9.64888 15.8314 9.44486 16.0039 9.20362 16.0039H7.79288C7.55164 16.0039 7.34775 15.8314 7.30793 15.5943L7.12492 14.4963C7.09146 14.295 6.94983 14.1318 6.75528 14.0703C6.42662 13.9666 6.11366 13.8379 5.82481 13.6879C5.74609 13.647 5.66087 13.6269 5.57605 13.6269C5.46632 13.6269 5.35712 13.6606 5.2636 13.7272L4.34261 14.3827C4.2596 14.4425 4.16518 14.4727 4.06194 14.4727C3.93003 14.4727 3.81019 14.4226 3.71538 14.3277L2.71734 13.3298C2.54704 13.1611 2.52538 12.8958 2.66429 12.7006L3.30747 11.8059C3.42848 11.638 3.44327 11.4201 3.34573 11.2368C3.18218 10.9301 3.04665 10.6084 2.94276 10.2806C2.88128 10.0874 2.71902 9.94615 2.51929 9.91204L1.4062 9.72229C1.16859 9.68234 0.996094 9.47832 0.996094 9.23721V7.82971C0.996094 7.5886 1.16859 7.38458 1.40659 7.34464L2.49114 7.16163C2.69386 7.12752 2.85715 6.9842 2.91747 6.78706C3.0198 6.45217 3.15144 6.12831 3.30877 5.82481C3.40241 5.6444 3.38737 5.42949 3.26947 5.2636L2.61552 4.34481C2.47584 4.1487 2.49828 3.88256 2.66831 3.71252L3.66791 2.7163L3.67154 2.71254C3.76142 2.6211 3.88334 2.57078 4.01498 2.57078C4.119 2.57078 4.21732 2.60191 4.29903 2.66079L5.19759 3.3076C5.36581 3.42874 5.58396 3.44327 5.76658 3.34573C6.07332 3.18218 6.39497 3.04665 6.72234 2.94289C6.91559 2.88154 7.05683 2.71954 7.0912 2.51929L7.28108 1.4062C7.3209 1.16859 7.52492 0.996094 7.76616 0.996094H9.17366C9.41477 0.996094 9.61879 1.16859 9.65874 1.40659L9.84174 2.49153C9.87598 2.69438 10.0196 2.85754 10.2168 2.91772C10.5531 3.01993 10.8885 3.15793 11.214 3.32809C11.3948 3.42252 11.6102 3.40773 11.7767 3.28931L12.6875 2.64069C12.7704 2.58089 12.8648 2.55067 12.9682 2.55067C13.0999 2.55067 13.2198 2.60074 13.3147 2.69568L14.3126 3.69359C14.4829 3.8622 14.5047 4.12756 14.3649 4.3238L13.7176 5.22949C13.5988 5.39603 13.584 5.61211 13.6788 5.79317C13.8382 6.09744 13.972 6.42078 14.0768 6.75437C14.1379 6.94892 14.3007 7.09081 14.5012 7.12466L15.5995 7.31104L15.6004 7.31117C15.8374 7.35099 16.0071 7.55202 16.0038 7.78925V9.20375Z" fill="#111111"/>
<path d="M8.50009 5.19473C6.67755 5.19473 5.19482 6.67746 5.19482 8.5C5.19482 10.3225 6.67755 11.8053 8.50009 11.8053C10.3226 11.8053 11.8054 10.3225 11.8054 8.5C11.8054 6.67746 10.3226 5.19473 8.50009 5.19473ZM8.50009 10.8092C7.22683 10.8092 6.19092 9.77326 6.19092 8.5C6.19092 7.22674 7.22683 6.19083 8.50009 6.19083C9.77335 6.19083 10.8093 7.22674 10.8093 8.5C10.8093 9.77326 9.77335 10.8092 8.50009 10.8092Z" fill="#111111"/>
</svg>

<svg width="17" height="17" fill="none" xmlns="http://www.w3.org/2000/svg"><path d="M15.766 6.329l-.829-.14a6.886 6.886 0 00-.25-.604l.489-.683a1.479 1.479 0 00-.16-1.914l-.997-.997a1.477 1.477 0 00-1.912-.16l-.685.488a6.84 6.84 0 00-.644-.265l-.137-.813A1.483 1.483 0 009.174 0H7.766c-.73 0-1.347.522-1.467 1.24l-.144.844a6.708 6.708 0 00-.6.253l-.674-.485a1.473 1.473 0 00-.866-.277c-.4 0-.773.155-1.052.437l-.998.996a1.484 1.484 0 00-.161 1.914l.496.697c-.091.197-.174.4-.246.606l-.813.137C.522 6.483 0 7.1 0 7.83v1.407c0 .73.522 1.347 1.24 1.467l.844.144c.074.204.159.405.253.601l-.483.672a1.479 1.479 0 00.16 1.915l.997.996a1.478 1.478 0 001.911.16l.697-.495c.184.085.373.163.568.233l.138.829c.121.719.738 1.241 1.468 1.241h1.41c.73 0 1.347-.522 1.468-1.24l.14-.83c.206-.073.408-.157.604-.249l.68.487c.253.181.552.277.866.277.396 0 .77-.155 1.051-.436l.996-.997a1.483 1.483 0 00.161-1.914l-.489-.687c.095-.2.179-.402.25-.602l.829-.138a1.484 1.484 0 001.24-1.467V7.799a1.469 1.469 0 00-1.233-1.47zm.238 2.875a.49.49 0 01-.41.485l-1.098.183a.537.537 0 00-.427.373c-.097.316-.231.639-.398.96a.537.537 0 00.04.562l.647.908a.49.49 0 01-.054.633l-.996.996a.481.481 0 01-.347.145.484.484 0 01-.285-.09l-.905-.647a.536.536 0 00-.564-.04c-.305.16-.628.293-.961.398a.537.537 0 00-.37.425l-.187 1.099a.49.49 0 01-.485.41H7.793a.49.49 0 01-.485-.41l-.183-1.098a.537.537 0 00-.37-.426 5.83 5.83 0 01-.93-.382.539.539 0 00-.561.04l-.921.655a.48.48 0 01-.627-.055l-.999-.998a.486.486 0 01-.053-.63l.643-.894a.536.536 0 00.039-.57 5.693 5.693 0 01-.403-.955.538.538 0 00-.424-.369l-1.113-.19a.49.49 0 01-.41-.485V7.83a.49.49 0 01.41-.485l1.085-.183a.537.537 0 00.426-.375c.103-.335.234-.659.392-.962a.537.537 0 00-.04-.561l-.653-.92a.49.49 0 01.052-.631l1-.997.004-.003a.477.477 0 01.343-.142c.104 0 .202.03.284.09l.899.647a.536.536 0 00.569.038c.306-.164.628-.3.955-.403a.538.538 0 00.37-.424l.19-1.113a.49.49 0 01.484-.41h1.408a.49.49 0 01.485.41l.183 1.086a.537.537 0 00.375.426c.336.102.671.24.997.41.18.095.396.08.563-.039l.91-.648a.481.481 0 01.627.055l.999.998c.17.168.192.434.052.63l-.647.905a.537.537 0 00-.04.564c.16.304.294.628.399.961a.537.537 0 00.424.37l1.099.187c.237.04.407.241.404.478v1.415z" fill="#111"/><path d="M8.5 5.195A3.309 3.309 0 005.195 8.5 3.31 3.31 0 008.5 11.805 3.31 3.31 0 0011.805 8.5 3.31 3.31 0 008.5 5.195zm0 5.614A2.312 2.312 0 016.19 8.5 2.312 2.312 0 018.5 6.19a2.312 2.312 0 012.31 2.31 2.312 2.312 0 01-2.31 2.31z" fill="#111"/></svg>
